material/.icons/material/credit-card-settings.svg

<svg xmlns="http://www.w3.org/2000/svg" viewBox="0 0 24 24"><path d="M20 4H4a2 2 0 00-2 2v12a2 2 0 002 2h16a2 2 0 002-2V6a2 2 0 00-2-2m0 7H4V8h16M7 22h2v2H7v-2m4 0h2v2h-2v-2m4 0h2v2h-2z"/></svg>

<?xml version="1.0" encoding="UTF-8"?><!DOCTYPE svg PUBLIC "-//W3C//DTD SVG 1.1//EN" "http://www.w3.org/Graphics/SVG/1.1/DTD/svg11.dtd"><svg xmlns="http://www.w3.org/2000/svg" xmlns:xlink="http://www.w3.org/1999/xlink" version="1.1" id="mdi-credit-card-settings" width="24" height="24" viewBox="0 0 24 24"><path d="M20 4H4A2 2 0 0 0 2 6V18A2 2 0 0 0 4 20H20A2 2 0 0 0 22 18V6A2 2 0 0 0 20 4M20 11H4V8H20M7 22H9V24H7V22M11 22H13V24H11V22M15 22H17V24H15Z" /></svg>
